Papirus/32x32/apps/shutter.svg

<?xml version="1.0" encoding="UTF-8" standalone="no"?>
<svg
   xmlns:dc="http://purl.org/dc/elements/1.1/"
   xmlns:cc="http://creativecommons.org/ns#"
   xmlns:rdf="http://www.w3.org/1999/02/22-rdf-syntax-ns#"
   xmlns:svg="http://www.w3.org/2000/svg"
   xmlns="http://www.w3.org/2000/svg"
   xmlns:sodipodi="http://sodipodi.sourceforge.net/DTD/sodipodi-0.dtd"
   xmlns:inkscape="http://www.inkscape.org/namespaces/inkscape"
   height="32"
   viewBox="0 0 32 32"
   width="32"
   version="1.1"
   id="svg2"
   inkscape:version="0.91 r13725"
   sodipodi:docname="shutter.svg">
  <metadata
     id="metadata35">
    <rdf:RDF>
      <cc:Work
         rdf:about="">
        <dc:format>image/svg+xml</dc:format>
        <dc:type
           rdf:resource="http://purl.org/dc/dcmitype/StillImage" />
        <dc:title></dc:title>
      </cc:Work>
    </rdf:RDF>
  </metadata>
  <sodipodi:namedview
     pagecolor="#3b3b3b"
     bordercolor="#666666"
     borderopacity="1"
     objecttolerance="10"
     gridtolerance="10"
     guidetolerance="10"
     inkscape:pageopacity="0"
     inkscape:pageshadow="2"
     inkscape:window-width="1600"
     inkscape:window-height="873"
     id="namedview33"
     showgrid="false"
     inkscape:zoom="1"
     inkscape:cx="16"
     inkscape:cy="16"
     inkscape:window-x="0"
     inkscape:window-y="0"
     inkscape:window-maximized="1"
     inkscape:current-layer="svg2" />
  <defs
     id="defs4">
    <clipPath
       id="clipPath-429196716" />
  </defs>
  <path
     style="fill:#000000;fill-opacity:1;opacity:0.2"
     d="M 24.501953,3.0022919 C 20.58931,3.0479309 14.552891,4.1442774 12.666016,6.410495 l -0.0059,0 C 11.154548,8.6167938 10.964483,17.251081 11.355469,16.719089 14.559753,12.335751 22.239198,6.9220017 26.826172,4.7464326 29.302651,3.5665293 27.54512,2.9667324 24.501953,3.0022919 Z M 9.8867188,7.9339326 C 8.8982102,8.1032042 4.930036,10.860543 5.84375,15.814792 l 0.00195,0.002 c 0.8673234,2.531094 6.4227669,5.897163 6.2304689,5.263672 -1.577905,-5.224376 -2.1486353,-8.60581 -1.972656,-13.060547 0.0033,-0.082564 -0.07558,-0.1101149 -0.2167972,-0.085937 z M 20.722656,10.152683 c -2.648083,0.192175 -7.304511,4.736977 -6.65039,4.710937 5.416449,-0.188311 8.799541,0.12327 13.02539,1.447266 0.626933,0.19604 -0.676868,-5.71301 -6.375,-6.158203 z m -2.865234,4.730468 c -0.137775,0.0076 -0.197088,0.04587 -0.150391,0.113282 3.095252,4.481756 4.669965,7.515961 5.861328,11.8125 0.176924,0.637355 4.393077,-3.673503 1.669922,-8.738282 -1.395953,-1.871634 -6.397232,-3.238007 -7.378906,-3.1875 l -0.002,0 z M 3.515625,15.736667 C 3.0062453,15.669127 1.8112494,21.277003 6.5703125,24.127292 9.0309582,25.138358 15.202149,23.146669 14.603516,22.871433 9.6640297,20.627195 6.7683032,18.829912 3.5605469,15.760105 3.5457629,15.745835 3.532056,15.738847 3.515625,15.736667 Z m 15.955078,2.738281 c -0.0306,-0.008 -0.05241,0.007 -0.0625,0.04687 -1.371161,5.285205 -2.637097,8.465575 -5.101562,12.169922 -0.368277,0.54658 5.62173,0.981476 7.671875,-4.398437 l 0.002,0.002 c 0.538909,-2.451365 -2.050722,-7.699215 -2.509766,-7.820313 z m -1.505859,3.376953 c -0.01252,-0.0031 -0.02653,-0.001 -0.04492,0.0078 -4.890457,2.357286 -8.116592,3.437125 -12.5195314,3.923828 -0.6500099,0.07533 2.8839172,4.969981 8.2851564,3.080078 l 0.0059,-0.002 c 2.277514,-1.205873 4.663531,-6.911347 4.275391,-7.009766 l -0.002,0 z"
     id="path4196"
     inkscape:connector-curvature="0" />
  <g
     transform="matrix(.96155 0 0 .96569 -7.5789 -7.6537)"
     id="g7">
    <g
       clip-path="url(#clipPath-429196716)"
       id="g9">
      <g
         id="g11" />
    </g>
  </g>
  <g
     fill="#fff"
     transform="matrix(.96155 0 0 .96572 -7.5789 -7.6548)"
     id="g17">
    <g
       clip-path="url(#clipPath-429196716)"
       id="g19">
      <g
         id="g21" />
    </g>
  </g>
  <g
     transform="matrix(.96155 0 0 .96572 -7.5789 -6.6544)"
     id="g25">
    <g
       clip-path="url(#clipPath-429196716)"
       id="g27">
      <g
         id="g29" />
    </g>
  </g>
  <path
     d="m 24.501025,2.0012086 c -3.912643,0.045639 -9.948975,1.1421038 -11.83585,3.4083215 l -0.0041,0 C 11.155467,7.6158288 10.963794,16.250276 11.35478,15.718284 14.559064,11.334946 22.239206,5.9212229 26.82618,3.7456538 29.302659,2.5657506 27.544262,1.9657191 24.501095,2.0012786 Z M 20.723109,9.151607 c -2.648083,0.1921752 -7.305823,4.737323 -6.651702,4.711283 5.416449,-0.188311 8.799628,0.123863 13.025477,1.447859 0.626933,0.19604 -0.675504,-5.7138784 -6.373636,-6.1590721 z M 17.858421,13.8834 c -0.139693,0.0073 -0.197556,0.04427 -0.150561,0.11211 3.095252,4.481756 4.668226,7.517193 5.859589,11.813732 0.176924,0.637355 4.394189,-3.673898 1.671034,-8.738676 -1.396579,-1.872473 -6.401623,-3.238854 -7.380131,-3.187054 z m 1.611378,3.591579 c -0.0306,-0.008 -0.0523,0.0066 -0.06239,0.04649 -1.371161,5.285205 -2.636902,8.46638 -5.101367,12.170727 -0.368277,0.54658 5.623053,0.980336 7.673198,-4.399577 l 0.0014,0.0027 c 0.538909,-2.451365 -2.051464,-7.69989 -2.510508,-7.820988 z m -1.504221,3.376892 c -0.01252,-0.0031 -0.02773,-6.39e-4 -0.04612,0.0082 -4.890457,2.357286 -8.1162689,3.437091 -12.5192083,3.923794 -0.6500099,0.07533 2.8837862,4.968739 8.2850253,3.078836 l 0.0054,-0.0014 c 2.277514,-1.205873 4.663435,-6.911282 4.275295,-7.0097 z"
     id="path13"
     inkscape:connector-curvature="0"
     style="fill:#37a0f2" />
  <path
     d="M 9.8859071,6.9340385 C 8.8973986,7.1033101 4.93017,9.8602769 5.843884,14.814526 l 0.00139,0.0027 c 0.8673234,2.531094 6.423568,5.895737 6.23127,5.262246 -1.577905,-5.224376 -2.1481349,-8.604278 -1.972156,-13.0590148 0.0033,-0.082564 -0.07716,-0.1103114 -0.2183759,-0.086134 z M 3.5149793,14.736128 c -0.5093797,-0.06754 -1.7031179,5.541191 3.0559452,8.39148 2.4606457,1.011066 8.6308715,-0.981176 8.0322385,-1.256412 -4.9394859,-2.244238 -7.8343146,-4.040692 -11.0420709,-7.110499 -0.014784,-0.01427 -0.029686,-0.02243 -0.046117,-0.02461 z"
     id="path15"
     inkscape:connector-curvature="0"
     style="fill:#5d5d5d" />
  <path
     style="fill:#ffffff;fill-opacity:1;opacity:0.1"
     d="M 24.501953 2.0019531 C 20.58931 2.0475921 14.552891 3.1439386 12.666016 5.4101562 L 12.660156 5.4101562 C 11.497835 7.113407 11.12555 12.606541 11.193359 14.796875 C 11.239043 12.242301 11.647227 7.8945293 12.660156 6.4101562 L 12.666016 6.4101562 C 14.552891 4.1439387 20.58931 3.0475921 24.501953 3.0019531 C 25.876587 2.9858905 26.960828 3.1056245 27.539062 3.34375 C 28.853265 2.4307043 27.176927 1.970696 24.501953 2.0019531 z M 9.8867188 6.9335938 C 8.9599919 7.0922859 5.4152152 9.5263838 5.7285156 13.912109 C 5.9645501 10.159182 9.0332476 8.0797416 9.8867188 7.9335938 C 10.003882 7.9135341 10.063973 7.9391562 10.083984 7.9921875 C 10.088682 7.6696755 10.090349 7.3528388 10.103516 7.0195312 C 10.106816 6.9369673 10.027935 6.9094163 9.8867188 6.9335938 z M 10.083984 9.0566406 C 10.036703 12.733143 10.552876 15.823593 11.789062 20.091797 C 11.978676 20.157641 12.10464 20.173862 12.076172 20.080078 C 10.747593 15.68121 10.139977 12.583195 10.083984 9.0566406 z M 20.722656 9.1523438 C 20.069879 9.1997167 19.295038 9.5123838 18.507812 9.9550781 C 16.897287 11.168064 15.368478 12.462439 14.033203 13.751953 C 14.010248 13.818616 14.012715 13.865652 14.072266 13.863281 C 14.319524 13.854685 14.542192 13.852167 14.78125 13.845703 C 16.104191 12.503096 18.881494 10.285959 20.722656 10.152344 C 24.853622 10.475095 26.654941 13.65056 27.105469 15.308594 C 27.709645 15.442245 26.391852 9.5952766 20.722656 9.1523438 z M 3.515625 14.736328 C 3.2831017 14.705497 2.9140303 15.862262 3.0273438 17.394531 C 3.0909669 16.399415 3.3384259 15.712833 3.515625 15.736328 C 3.532056 15.738508 3.5457629 15.745496 3.5605469 15.759766 C 6.5517883 18.622369 9.2935253 20.381982 13.652344 22.425781 C 14.352079 22.174632 14.775852 21.95033 14.603516 21.871094 C 13.63464 21.430888 12.762983 21.008633 11.933594 20.589844 C 11.982933 20.756449 12.024698 20.909651 12.076172 21.080078 C 12.219949 21.553726 9.1530127 19.791813 7.2324219 17.814453 C 5.9672275 16.917532 4.78555 15.932088 3.5605469 14.759766 C 3.5457629 14.745496 3.532056 14.738508 3.515625 14.736328 z M 18.279297 14.84375 C 18.297317 14.870485 18.316075 14.897191 18.333984 14.923828 C 19.911257 15.145762 23.995401 16.403912 25.238281 18.070312 C 25.798175 19.111655 26.054427 20.117447 26.123047 21.058594 C 26.209419 19.848425 26.002719 18.492085 25.238281 17.070312 C 24.711859 16.364508 23.672231 15.731961 22.529297 15.21875 C 21.180153 15.004722 19.79351 14.890908 18.279297 14.84375 z M 19.398438 17.558594 C 18.031144 22.820566 16.765065 25.996139 14.306641 29.691406 C 14.235473 29.79703 14.453803 29.88528 14.783203 29.941406 C 16.931826 26.545963 18.130896 23.444926 19.408203 18.521484 C 19.418293 18.481614 19.440103 18.466609 19.470703 18.474609 C 19.861653 18.577744 21.782663 22.389323 22.015625 25.035156 C 22.175678 23.788783 21.678322 21.984482 21.070312 20.443359 C 20.582617 19.51204 20.029507 18.55976 19.398438 17.558594 z M 17.964844 20.851562 C 17.952324 20.848463 17.938312 20.850536 17.919922 20.859375 C 16.498554 21.544499 15.225567 22.109596 14.015625 22.595703 C 14.214767 22.687907 14.397429 22.777459 14.603516 22.871094 C 15.107047 23.102604 10.82719 24.542659 7.9882812 24.394531 C 7.1566152 24.551031 6.30705 24.682981 5.4003906 24.783203 C 5.2193323 24.804186 5.3924219 25.210469 5.8105469 25.728516 C 9.9440513 25.227027 13.104775 24.166546 17.730469 21.949219 C 17.966953 21.316966 18.070322 20.877813 17.966797 20.851562 L 17.964844 20.851562 z "
     id="path4201" />
</svg>

<?xml version="1.0" encoding="UTF-8" standalone="no"?>
<svg xmlns="http://www.w3.org/2000/svg" height="32" viewBox="0 0 32 32" width="32" version="1.1">
 <defs>
  <clipPath id="clipPath-429196716"/>
 </defs>
 <g transform="matrix(.96155 0 0 .96569 -7.5789 -7.6537)">
  <g clip-path="url(#clipPath-429196716)">
   <g>
    <path transform="matrix(.72224 0 0 .72486 6.6681 7.0974)" fill="#37a0f2" d="m36.961 4.002c-5.634 0.0652-14.326 1.6316-17.043 4.8691h-0.0059c-2.168 3.1519-2.444 15.487-1.881 14.727 4.614-6.262 15.673-13.996 22.278-17.104 3.566-1.6856 1.034-2.5428-3.348-2.492zm-5.44 10.215c-3.8131 0.27454-10.52 6.7677-9.5781 6.7305 7.7994-0.26902 12.671 0.17695 18.756 2.0684 0.90275 0.28006-0.97269-8.1628-9.1777-8.7988zm-4.125 6.7598c-0.20115 0.01048-0.28447 0.06324-0.2168 0.16016 4.457 6.4026 6.722 10.739 8.4375 16.877 0.25476 0.91052 6.3274-5.2485 2.4062-12.484-2.011-2.675-9.218-4.627-10.627-4.553zm2.3203 5.1309c-0.04407-0.01149-0.07531 0.0094-0.08984 0.06641-1.9744 7.5504-3.797 12.095-7.3457 17.387-0.5303 0.78084 8.0969 1.4005 11.049-6.2852l0.002 0.0039c0.776-3.502-2.954-11-3.615-11.173zm-2.166 4.8242c-0.01803-0.0045-0.03993-0.000913-0.06641 0.01172-7.042 3.3676-11.687 4.9102-18.027 5.6055-0.93598 0.10761 4.1525 7.0983 11.93 4.3984l0.0078-0.002c3.2795-1.7227 6.7151-9.8734 6.1562-10.014z"/>
    <path transform="matrix(.72224 0 0 .72486 6.6681 7.0974)" fill="#5d5d5d" d="m15.916 11.049c-1.4234 0.24182-7.136 4.1804-5.8203 11.258l0.002 0.0039c1.2489 3.6159 9.2496 8.4226 8.9727 7.5176-2.2721-7.4635-3.0932-12.292-2.8398-18.656 0.0047-0.11795-0.11111-0.15759-0.31445-0.12305zm-9.1738 11.146c-0.73348-0.09648-2.4524 7.9161 4.4004 11.988 3.5432 1.4444 12.428-1.4017 11.566-1.7949-7.1126-3.2061-11.281-5.7725-15.9-10.158-0.021288-0.02039-0.042746-0.03204-0.066406-0.03516z"/>
   </g>
  </g>
 </g>
 <g fill="#fff" transform="matrix(.96155 0 0 .96572 -7.5789 -7.6548)">
  <g clip-path="url(#clipPath-429196716)">
   <g>
    <path opacity=".1" transform="matrix(1.04 0 0 1.0355 7.882 7.9265)" d="m24.5 2.002c-3.913 0.0457-9.947 1.1419-11.834 3.4082h-0.006c-1.165 1.7072-1.539 7.2178-1.469 9.3988 0.045-2.553 0.455-6.9119 1.469-8.3988h0.006c1.887-2.2663 7.921-3.3625 11.834-3.4082 1.375-0.0161 2.458 0.1036 3.037 0.3418 1.316-0.9137-0.361-1.3731-3.037-1.3418zm-14.613 4.9316c-0.9267 0.1587-4.4715 2.5908-4.1582 6.9764 0.237-3.752 3.3049-5.8303 4.1582-5.9764 0.1163-0.0199 0.1763 0.0044 0.1973 0.0566 0.005-0.3219 0.006-0.638 0.02-0.9707 0.003-0.0825-0.076-0.1101-0.2173-0.0859zm0.1973 2.123c-0.047 3.6764 0.469 6.7674 1.705 11.035 0.19 0.066 0.316 0.082 0.287-0.012-1.328-4.399-1.936-7.497-1.992-11.023zm10.639 0.0957c-0.653 0.0474-1.428 0.3601-2.215 0.8028-1.61 1.2119-3.138 2.5059-4.473 3.7949-0.024 0.068-0.023 0.116 0.037 0.113 0.248-0.008 0.47-0.011 0.709-0.017 1.323-1.343 4.1-3.56 5.942-3.694 4.131 0.323 5.932 3.499 6.382 5.157 0.605 0.134-0.713-5.7137-6.382-6.1567zm-17.207 5.5837c-0.2325-0.03-0.6016 1.126-0.4883 2.659 0.0638-0.995 0.3112-1.682 0.4883-1.659 0.0165 0.003 0.0302 0.011 0.0449 0.026 2.9913 2.863 5.733 4.62 10.092 6.664 0.7-0.252 1.124-0.476 0.952-0.555-0.969-0.44-1.841-0.862-2.67-1.281 0.049 0.166 0.091 0.32 0.142 0.49 0.144 0.473-2.9147-1.285-4.8358-3.26-1.2682-0.898-2.4521-1.883-3.6797-3.058-0.0147-0.015-0.0284-0.023-0.0449-0.026zm14.765 0.108c0.018 0.026 0.036 0.052 0.053 0.078 1.575 0.221 5.661 1.482 6.904 3.148 0.56 1.042 0.816 2.047 0.885 2.989 0.086-1.211-0.12-2.567-0.885-3.989-0.526-0.704-1.564-1.338-2.705-1.851-1.35-0.215-2.737-0.328-4.252-0.375zm1.117 2.711c-1.367 5.264-2.632 8.44-5.091 12.136-0.072 0.106 0.147 0.194 0.476 0.25 2.149-3.395 3.348-6.496 4.625-11.42 0.01-0.039 0.032-0.054 0.063-0.046 0.391 0.102 2.312 3.914 2.545 6.56 0.16-1.249-0.34-3.06-0.95-4.603-0.486-0.929-1.038-1.879-1.668-2.877zm-1.431 3.297c-0.013-0.004-0.029-0.001-0.047 0.007-1.421 0.686-2.694 1.251-3.904 1.737 0.199 0.092 0.381 0.181 0.588 0.275 0.503 0.232-3.785 1.676-6.6235 1.525-0.8292 0.156-1.6763 0.287-2.5801 0.387-0.1811 0.021-0.008 0.427 0.4101 0.946 4.1335-0.502 7.2945-1.562 11.92-3.78 0.237-0.632 0.34-1.071 0.237-1.097z"/>
   </g>
  </g>
 </g>
 <g transform="matrix(.96155 0 0 .96572 -7.5789 -6.6544)">
  <g clip-path="url(#clipPath-429196716)">
   <g>
    <path opacity=".2" d="m27.537 2.3438c-0.181 0.1254-0.412 0.2598-0.711 0.4023-4.586 2.1758-12.267 7.5889-15.471 11.973-0.088 0.12-0.143-0.272-0.164-0.91-0.021 1.234 0.037 2.083 0.164 1.91 0.698-0.955 1.635-1.96 2.68-2.969 0.173-0.49 2.361-2.607 4.473-3.7949 2.913-2.1941 6.007-4.1129 8.318-5.209 1.358-0.647 1.414-1.1133 0.711-1.4023zm-17.453 4.6464c-0.005 0.3593-0.006 0.7174 0 1.0664 0.004-0.3432 0.005-0.6817 0.02-1.0371 0-0.0145-0.016-0.0181-0.02-0.0293zm5.93 5.8258c-0.394 0.005-0.818 0.018-1.235 0.03-0.578 0.587-0.906 1.025-0.707 1.017 1.551-0.054 2.924-0.059 4.209-0.019-0.19-0.282-0.369-0.554-0.572-0.848-0.047-0.068 0.011-0.106 0.15-0.113 0.609-0.032 2.778 0.488 4.666 1.336 1.507 0.239 2.98 0.593 4.573 1.092 0.172 0.053 0.178-0.374 0.007-1.002-0.003-0.001-0.004 0.003-0.007 0.002-3.698-1.159-6.75-1.543-11.084-1.495zm-10.286 0.1c-0.0369 0.593-0.0093 1.223 0.1153 1.898l0.0019 0.002c0.2197 0.642 0.7429 1.335 1.3945 2.004 1.3959 0.989 2.9128 1.873 4.6938 2.772-0.051-0.169-0.097-0.333-0.145-0.498-1.091-0.379-5.2044-3.121-5.9433-5.278l-0.0019-0.002c-0.0569-0.308-0.0943-0.607-0.1153-0.898zm12.13 0.967c-0.139 0.007-0.197 0.045-0.15 0.113 0.627 0.908 1.178 1.747 1.689 2.559 0.003-0.012 0.007-0.022 0.01-0.034 0.01-0.039 0.032-0.054 0.063-0.046 0.225 0.059 0.96 1.354 1.59 2.943 1.073 2.048 1.853 4.03 2.507 6.391 0.141 0.506 2.82-2.114 2.555-5.75-0.221 3.101-2.427 5.208-2.555 4.75-1.106-3.989-2.557-6.905-5.234-10.887-0.194-0.027-0.367-0.045-0.475-0.039zm-14.832 2.51c-0.1197 1.865 0.4386 4.876 3.543 6.736 0.389 0.16 0.8771 0.239 1.4102 0.267 2.0365-0.382 3.9365-0.957 6.0355-1.8-0.123-0.057-0.243-0.114-0.364-0.17-1.73 0.622-5.3293 1.423-7.0817 0.703-2.5875-1.55-3.4085-3.911-3.543-5.736zm14.94 4.459c-0.013-0.004-0.029-0.001-0.047 0.007-0.066 0.032-0.124 0.057-0.19 0.088-0.649 1.738-2.368 5.03-4.039 5.914l-0.005 0.002c-3.897 1.364-6.7924-0.793-7.8755-2.134-0.1386 0.016-0.2691 0.039-0.4101 0.054-0.65 0.076 2.8841 4.97 8.2856 3.08l0.005-0.002c2.278-1.206 4.664-6.911 4.276-7.009zm4.049 3.183c-0.012 0.087-0.018 0.179-0.036 0.26l-0.001-0.002c-1.654 4.34-5.821 4.883-7.196 4.648-0.158 0.25-0.308 0.497-0.476 0.75-0.369 0.547 5.621 0.982 7.672-4.398l0.001 0.002c0.08-0.364 0.076-0.799 0.036-1.26z" transform="matrix(1.04,0,0,1.0355,7.882,7.9265)"/>
   </g>
  </g>
 </g>
</svg>
